X: 28913
T: Na Conneries
R: waltz
M: 3/4
K: Dmajor
DE|F>G E2 FG/A/|B>c AG FG|E2D3 D|D3 z (3ABc|
dB c3B|A>B A/G/ E E/ F/ G/A/|B2c2 B2|A3z (3ABc|
dd c3 B|A>BA/G/ E (3EGB|B2c2B2|A3 DE|
F>G E>F GA|B>c A>G F>G|E2 D3 D|D3||

